X: 1
T:Crowley's
R:reel
D:Noel Hill agus Tony McMahon: I gCnoc na Grai
Z:id:hn-reel-446
M:C|
K:D
~A3d B2dB|AD{F}ED AD{F}ED|~A3d ~B3A|1 (3Bcd eg fddB:|2 (3Bcd eg fdde||
|:~f3a g2fg|eA{c}BA eA{c}BA|f2~f2 g2fg|1 afge fdde:|2 afge fddB||
